!!!!SEGMENT: pl-kk--kk-i-270--002_anonim--tollite-portas.krn
!!!cenid: 17xx:2038
!!!COM: Anonim
!!!COM-rismid: pe30004985
!!!CDT:
!!!CNT:
!!!OTL: Tollite portas
!!!PDT:
!!!AGN: Sacred
!!!SMS-siglum: PL-Kk
!!!SMS-shelfmark: Kk.I.270
!!!SMS-shelfwork: 002 W
!!!SMS-variant:
!!!SMS-altvar:
!!!NIFC-rismid: 1001143709
!!!URL-scan: http://repozytorium.nifc.pl/skany/pl-kk-nut--i-270
!!!ONB-nifc: UWAGA: utwory w zbiorze: 1. Rorate caeli, 2. Tollite portas, 3. Alleluia Ave Maria
**kern	**text	**kern	**text	**kern	**text	**kern	**text	**kern	**text
*part5	*part5	*part4	*part4	*part3	*part3	*part2	*part2	*part1	*part1
*staff5	*staff5	*staff4	*staff4	*staff3	*staff3	*staff2	*staff2	*staff1	*staff1
*I"Baſso Ripieno.	*	*I"Baſso.	*	*I"Tenore Secundo.	*	*I"Tenore Primo.	*	*I"Alto.	*
*I'B. rip.	*	*I'B.	*	*I'T. 2	*	*I'T. 1	*	*I'A.	*
*clefF4	*	*clefF4	*	*clefC4	*	*clefC4	*	*clefC3	*
*k[]	*	*k[]	*	*k[]	*	*k[]	*	*k[]	*
*C:	*	*C:	*	*C:	*	*C:	*	*C:	*
*M3/2	*	*M3/4	*	*M3/4	*	*M3/4	*	*M3/4	*
=1	=1	=1	=1	=1	=1	=1	=1	=1	=1
*rscale:2	*	*	*	*	*	*	*	*	*
4.C/	Tol-	4.C/	Tol-	4.E/	Tol-	4.c\	Tol-	4.g\	Tol-
8C/	-li-	8C/	-li-	8E/	-li-	8c\	-li-	8g\	-li-
(16C/LL	-te	(16C/LL	-te	16E/LL	-te	(8c\L	-te	4g\	-te
16D/	.	16D/	.	(16F/	.	.	.	.	.
16E/	.	16E/	.	16G/	.	8d\J)	.	.	.
16F/JJ)	.	16F/JJ)	.	16A/JJ)	.	.	.	.	.
=2	=2	=2	=2	=2	=2	=2	=2	=2	=2
!LO:TX:t=P:problem:2\right:global	!	!	!	!	!	!	!	!	!
*2\right	*ij	*	*ij	*	*	*	*ij	*	*
4.G\	tol-	4.G\	tol-	4.B\	tol-	4.d\	tol-	4.g\	tol-
8G\	-li-	8G\	-li-	8B\	-li-	8d\	-li-	8g\	-li-
4G\	-te	4G\	-te	4B\	-te	(8d\L	-te	4g\	-te
*	*Xij	*	*	*	*	*	*Xij	*	*
.	.	.	.	.	.	8e\J)	.	.	.
=3	=3	=3	=3	=3	=3	=3	=3	=3	=3
*	*	*	*	*	*ij	*	*	*	*ij
4.A\	tol-	4.A\	tol-	4.c\	tol-	4.f\	tol-	4.f\	tol-
8A\	-li-	8A\	-li-	8c\	-li-	8f\	-li-	8f\	-li-
4B\	-te	4B\	-te	4d\	-te	4f\	-te	4d\	-te
*	*	*	*Xij	*	*Xij	*	*	*	*Xij
=4	=4	=4	=4	=4	=4	=4	=4	=4	=4
*	*	*2\right	*	*2\right	*	*2\right	*	*2\right	*
(4c\	por-	2c\	por-	2e\	por-	2e\	por-	2g\	por-
4C/)	.	.	.	.	.	.	.	.	.
4C,</	-tas	4c\	-tas	4e\	-tas	4e\	-tas	4g\	-tas
=5	=5	=5	=5	=5	=5	=5	=5	=5	=5
4.c\	Pr(in-	4.c\	Prin-	4.e\	Prin-	4.c\	prin-	4.g\	prin-
8c\	-ci)-	8c\	-ci-	8e\	-ci-	8c\	-ci-	8g\	-ci-
[<4B\	-pes	[4B\	-pes	4d\	-pes	4d\	-pes	4g\	-pes
=6	=6	=6	=6	=6	=6	=6	=6	=6	=6
!	!	!LO:N:xstem:cue	!	!LO:N:xstem:cue	!	!	!	!	!
4B\]	.	4B\]	.	4d\	.	2d\	ves-	(2g\	Ves-
2A\	ves-	2A\	ves-	2c\	Ves-	.	.	.	.
.	.	.	.	.	.	4d\	-tras	4f#X\)	.
!	!	!LO:LB:g=original	!	!LO:LB:g=original	!	!LO:LB:g=original	!	!LO:PB:g=original	!
=7	=7	=7	=7	=7	=7	=7	=7	=7	=7
4G,<\	-tras	4G\	-tras	4B\	-tras	4d\	tol-	4g\	-tras
8G\	tol-	8G\	tol-	8B\	tol-	4G/	-li-	8B/	tol-
8G\	-li-	8G\	-li-	8B\	-li-	.	.	8d/	-li-
4G\	-te	4G\	-te	4B\	-te	4G/	-te	4d/	-te
=8-	=8	=8	=8	=8	=8	=8	=8	=8	=8
2Fn\	por-	2Fn\	por-	2B\	por-	2G/	por-	4g\	por-
.	.	.	.	.	.	.	.	2d\	-tas
4F\	-tas	4F\	-tas	4B\	-tas	4G/	-tas	.	.
!LO:LB:g=original	!	!	!	!	!	!	!	!	!
=9	=9	=9	=9	=9	=9	=9	=9	=9	=9
4.E\	Pr(in-	4.E\	prin-	4.c\	prin-	4.e\	prin-	4.g\	prin-
!	!	!	!	!	!	!	!	!LO:TX:a:t=P:problem:♮ above	!
8D\	-ci)-	8D\	-ci-	8d\	-ci-	8f\	-ci-	8fn\	-ci-
4C/	-pes	4C\	-pes	4e\	-pes	4g\	-pes	4e\	-pes
=10	=10	=10	=10	=10	=10	=10	=10	=10	=10
4F\	ves-	(4F\	ves-	2.d\	Ves-	(4d\	ves-	(4a\	ves-
2G\	.	2G\)	.	.	.	4c\)	.	2g\)	.
.	.	.	.	.	.	4B\	.	.	.
=11	=11	=11	=11	=11	=11	=11	=11	=11	=11
8C,</	-tras	8C/	-tras	4e\	-tras	4c\	-tras	4g\	-tras
8AA/	et	8AA/	et	.	.	.	.	.	.
(8C/	e-	(8C/L	e-	4r	.	4r	.	4r	.
8BB/)	.	8BB/J)	.	.	.	.	.	.	.
(8C/	-le-	(8C/L	-le-	4r	.	4r	.	4r	.
8AA/)	.	8AA/J)	.	.	.	.	.	.	.
=12	=12	=12	=12	=12	=12	=12	=12	=12	=12
8E\	-va-	8E\	-va-	8r	.	2.r	.	8r	.
8E\	-mi-	8E\	-mi-	8G#X/	et	.	.	8e\	et
8E,<\	-ni	8E\	-ni	(8B/L	e-	.	.	(8g#X\L	e-
!	!	!LO:LB:g=original	!	!	!	!	!	!	!
*	*ij	*	*	*	*	*	*	*	*
8E\	et	8E\	et	8A/J)	.	.	.	8f#X\J)	.
8E\	e-	8E\	e-	(8B/L	-le-	.	.	(8g#X\L	-le-
!	!	!	!	!LO:TX:b:t=P:problem:# below	!	!	!	!	!
8E\	-le-	8E\	-le-	8G#X/J)	.	.	.	8e\J)	.
!	!	!	!	!LO:PB:g=original	!	!	!	!LO:LB:g=original	!
=13	=13	=13	=13	=13	=13	=13	=13	=13	=13
8A\	-va-	8A\	-va-	8c\	-va-	8r	.	8a\	-va-
8A\	-mi-	8A\	-mi-	8c\	-mi-	8A\	et	8a\	-mi-
8A,<\	-ni	8A\	-ni	8c\	-ni	(8c\L	e-	8a\	-ni
*	*Xij	*	*ij	*	*	*	*	*	*ij
8A\	et	8A\	et	8e\	et	8B\J)	.	8a\	et
8A\	e-	8A\	e-	8e\	e-	(8c\L	-le-	8a\	e-
8A\	-le-	8A\	-le-	8e\	-le-	8A\J)	.	8a\	-le-
=14	=14	=14	=14	=14	=14	=14	=14	=14	=14
8E\	-va-	8E\	-va-	8e\	-va-	8B\	-va-	8g#X\	-va-
8E\	-mi-	8E\	-mi-	8e\	-mi-	8B\	-mi-	8g#\	-mi-
8E,<\	-ni	8E\	-ni	8e\	-ni	8B\	-ni	8g#\	-ni
*	*ij	*	*	*	*	*	*	*	*Xij
8E\	et	8E\	et	8e\	et	8e\	et	8g#\	et
!	!	!	!	!	!	!LO:LB:g=original	!	!	!
8D\	e-	8D\	e-	8B\	e-	8e\	e-	8g#\	e-
8D\	-le-	8D\	-le-	8B\	-le-	8e\	-le-	8g#\	-le-
=15	=15	=15	=15	=15	=15	=15	=15	=15	=15
4.C/	-va-	4.C/	-va-	4.e\	-va-	4.c\	-va-	4.a\	-va-
8BB/	-mi-	8BB/	-mi-	8d\	-mi-	8d\	-mi-	8b\	-mi-
4AA/	-ni	4AA/	-ni	4c\	-ni	4e\	-ni	4cc\	-ni
*	*Xij	*	*Xij	*	*	*	*	*	*
!	!	!LO:LB:g=original	!	!	!	!	!	!	!
=16	=16	=16	=16	=16	=16	=16	=16	=16	=16
2A\	Por-	2A\	por-	2c\	por-	2f\	por-	2a\	por-
4D/	-t(a)e	4D\	-tae	4c\	-tae	4f\	-tae	4a\	-ta
!LO:LB:g=original	!	!	!	!LO:LB:g=original	!	!	!	!	!
=17	=17	=17	=17	=17	=17	=17	=17	=17	=17
*	*ij	*	*ij	*	*	*	*ij	*	*ij
!	!	!	!	!	!	!	!	!LO:TX:a:t=P:problem:♮ above	!
4.G\	por-	4.G\	por-	4.d\	por-	4.f\	por-	4.gn\	por-
8G\	-tae	8G\	-tae	8d\	-tae	8f\	-tae	8g\	-ta
*	*Xij	*	*Xij	*	*	*	*Xij	*	*Xij
4C/	ae-	4C/	ae-	4c\	ae-	4e\	ae-	4g\	ae-
!	!	!	!	!	!	!	!	!LO:LB:g=original	!
=18	=18	=18	=18	=18	=18	=18	=18	=18	=18
4F\	-ter-	4F\	-ter-	(8d\L	-ter-	(8f\L	-ter-	4a\	-ter-
.	.	.	.	8c\J)	.	8e\J)	.	.	.
2D\	-na-	2DT\	-na-	(4c\	-na-	2d\	-na-	2g\	-na-
.	.	.	.	4B\)	.	.	.	.	.
=19	=19	=19	=19	=19	=19	=19	=19	=19	=19
4.C,</	-les	4.C/	-les	4.c\	-les	4.e\	-les	4.g\	-lis
!	!	!	!	!	!	!LO:TX:t=P:problem:skreślenie w tekście	!	!	!
8C/	et	8C/	et	8c\	et	8e\	et	8g\	et
8E\	in-	8E/	in-	8c\	in-	8c\	in-	8e\	in-
8C\	-tro-	8C/	-tro-	8c\	-tro-	8e\	-tro-	8g\	-tro-
!	!	!	!	!	!	!LO:PB:g=original	!	!	!
=20	=20	=20	=20	=20	=20	=20	=20	=20	=20
4G\	-i-	4G\	-i-	4d\	-i-	4d\	-i-	4g\	-i-
8G,<\	-bit	8G\	-bit	8d\	-bit	8d\	-bit	8g\	-bit
*	*ij	*	*	*	*	*	*	*	*ij
8G\	et	8G\	et	8d\	et	8d\	et	8g\	et
8B\	in-	8B\	in-	8B\	in-	8d\	in-	8d\	in-
8G\	-tro-	8G\	-tro-	8d\	-tro-	8d\	-tro-	8g\	-tro-
!	!	!LO:LB:g=original	!	!	!	!	!	!	!
=21	=21	=21	=21	=21	=21	=21	=21	=21	=21
4c\	-i-	4c\	-i-	4c\	-i-	4e\	-i-	4g\	-i-
4c,<\	-bit	4c\	-bit	4c\	-bit	4e\	-bit	4g\	-bit
*	*Xij	*	*	*	*	*	*	*	*Xij
4E\	Rex	4E\	Rex	4c\	Rex	4G/	Rex	4e\	Rex
!	!	!	!	!LO:LB:g=original	!	!	!	!	!
=22	=22	=22	=22	=22	=22	=22	=22	=22	=22
8F\	glo-	8F\L	glo-	4c\	glo-	8A/L	glo-	4c\	glo-
(8E\	.	8E\	.	.	.	8G/	.	.	.
8D\	.	8D\	.	2A\	.	8F/	.	[2d\	.
8E\)	.	8E\	.	.	.	8G/	.	.	.
8F\	.	8F\	.	.	.	8A/	.	.	.
8D\	.	8D\J	.	.	.	8F/J	.	.	.
=23	=23	=23	=23	=23	=23	=23	=23	=23	=23
8G\	.	8G\L	.	4d\	.	8B\L	.	4d\]	.
8F\	.	8F\	.	.	.	8A\	.	.	.
8E\	.	8E\	.	2B\	.	8G\	.	[2e\	.
8F\	.	8F\	.	.	.	8A\	.	.	.
8G\	.	8G\	.	.	.	8B\	.	.	.
8E\	.	8E\J	.	.	.	8G\J	.	.	.
!	!	!	!	!	!	!	!	!LO:LB:g=original	!
=24	=24	=24	=24	=24	=24	=24	=24	=24	=24
!	!	!	!	!	!	!	!	!LO:TX:a:t=P:problem:brak zakończenia ligatury	!
8A\	.	8A\L	.	4e\	.	8c\L	.	4e\]	.
8G\	.	8G\	.	.	.	8B\	.	.	.
8F\	.	8F\	.	2c\	.	8A\	.	[2f\	.
8G\	.	8G\	.	.	.	8B\	.	.	.
8A\	.	8A\	.	.	.	8c\	.	.	.
8F\	.	8F\J	.	.	.	8A\J	.	.	.
=25	=25	=25	=25	=25	=25	=25	=25	=25	=25
!	!	!	!	!	!	!LO:TX:t=P:problem:skreślony jeden takt	!	!	!
8Bn\	.	8B\L	.	4f\	.	8d\L	.	4f\]	.
8A\	.	8A\	.	.	.	8c\	.	.	.
8G\	.	8G\	.	2d\	.	8B\	.	2g\	.
8A\	.	8A\	.	.	.	8c\	.	.	.
8B\	.	8B\	.	.	.	8d\	.	.	.
8G\	.	8G\J	.	.	.	8B\J	.	.	.
!LO:LB:g=original	!	!	!	!	!	!LO:LB:g=original	!	!	!
=26	=26	=26	=26	=26	=26	=26	=26	=26	=26
8c\	.	8c\L	.	4.e\	.	8e\L	.	4.g\	.
8B\	.	8B\	.	.	.	8d\	.	.	.
8A\	.	8A\	.	.	.	8c\	.	.	.
8G\	.	8G\	.	8e\	-ri-	8B\	.	8g\	-ri-
8F\	.	8F\	.	4e\	-ae	8A\	.	4g\	-ae
8E\	.	8E\J	.	.	.	8G\J	.	.	.
=27	=27	=27	=27	=27	=27	=27	=27	=27	=27
8D/	.	8D\L	.	4c\	Rex	8f\L	.	4a\	Rex
8C/	.	8C\J	.	.	.	8e\J	.	.	.
4G\	.	4.G\	.	4.c\	glo-	4.d\	.	4.g\	glo-
4GG/	-ri-	.	.	.	.	.	.	.	.
.	.	8G\	-ri-	8B\	-ri-	8d\	-ri-	8g\	-ri-
!	!	!LO:LB:g=original	!	!	!	!	!	!	!
=28	=28	=28	=28	=28	=28	=28	=28	=28	=28
!LO:N:vis=0.	!	!	!	!	!	!	!	!	!
2.C;	-ae	2.C/	-ae	2.c\	-ae	2.e\	-ae	2.g\	-ae.
=29||	=29||	=29||	=29||	=29||	=29||	=29||	=29||	=29||	=29||
*M3/2	*	*	*	*	*	*	*	*M3/4	*
!LO:N:vis=00	!	!LO:N:vis=00	!	!LO:N:vis=00	!	!	!	!LO:N:vis=0	!
0.r	.	0.r	.	0.r	.	4r	.	1.r	.
.	.	.	.	.	.	4G/	Quis	.	.
.	.	.	.	.	.	4G/	as-	.	.
=30	=30	=30	=30	=30	=30	=30	=30	=30	=30
.	.	.	.	.	.	4A/	-cen-	.	.
.	.	.	.	.	.	4A/	-det	.	.
.	.	.	.	.	.	4A/	in	.	.
=31	=31	=31	=31	=31	=31	=31	=31	=31	=31
.	.	.	.	.	.	8B\L	mon-	2.r	.
.	.	.	.	.	.	8A\	.	.	.
.	.	.	.	.	.	(8G\	.	.	.
.	.	.	.	.	.	8A\J)	.	.	.
.	.	.	.	.	.	(8B\L	-tem	.	.
.	.	.	.	.	.	8c#X\J)	.	.	.
=32	=32	=32	=32	=32	=32	=32	=32	=32-	=32
.	.	.	.	.	.	4.d\	Do-	4r	.
.	.	.	.	.	.	.	.	4d\	Quis
.	.	.	.	.	.	8d\	-mi-	.	.
.	.	.	.	.	.	8d\	-ni	4d\	as-
.	.	.	.	.	.	8d\	as-	.	.
!	!	!	!	!	!	!LO:LB:g=original	!	!LO:LB:g=original	!
=33	=33	=33	=33	=33	=33	=33	=33	=33	=33
!LO:N:vis=00	!	!LO:N:vis=00	!	!LO:N:vis=0	!	!	!	!	!
0.r	.	0.r	.	1.r	.	4d\	-cen-	4e\	-cen-
.	.	.	.	.	.	4cn\	-det	4e\	-det
.	.	.	.	.	.	4c\	in	4e\	in
=34	=34	=34	=34	=34	=34	=34	=34	=34	=34
.	.	.	.	.	.	2c\	mon-	8f#X\L	mon-
.	.	.	.	.	.	.	.	8e\	.
.	.	.	.	.	.	.	.	8d\	.
.	.	.	.	.	.	.	.	8e\J	.
.	.	.	.	.	.	4d\	-tem	8f#X\L	-tem
.	.	.	.	.	.	.	.	8d\J	.
=35	=35	=35	=35	=35	=35	=35	=35	=35	=35
.	.	.	.	4r	.	4.B\	do-	4.g\	Do-
.	.	.	.	4G/	Quis	.	.	.	.
.	.	.	.	.	.	8B\	-mi-	8g\	-mi-
.	.	.	.	4G/	as-	8B\	-ni	8g\	-ni
.	.	.	.	.	.	8B\	as-	8g\	aſ-
!	!	!	!	!LO:LB:g=original	!	!	!	!	!
=36	=36	=36	=36	=36	=36	=36	=36	=36	=36
.	.	.	.	4A/	-cen-	4d\	-cen-	4g\	-cen-
.	.	.	.	4A/	-det	4d\	-det	4f#X\	-det
.	.	.	.	4A/	in	4d\	in	4f#\	in
=37	=37	=37	=37	=37	=37	=37	=37	=37	=37
2.r	.	2.r	.	8B\L	mon-	2d\	mon-	2g\	mon-
.	.	.	.	(8A\	.	.	.	.	.
.	.	.	.	8G\	.	.	.	.	.
.	.	.	.	8A\J)	.	.	.	.	.
.	.	.	.	(8B\L	-tem	4e\	-tem	(8g\L	-tem
.	.	.	.	8c#X\J)	.	.	.	8a\J)	.
=38	=38	=38-	=38	=38	=38	=38	=38	=38	=38
4r	.	4r	.	4.d\	do-	4.f#X\	do-	4.a\	D(o-
4D/	Quis	4D\	Quis	.	.	.	.	.	.
.	.	.	.	8d\	-mi-	8f#\	-mi-	8a\	-mi)-
4D/	as-	4D\	aſ-	8d\	-ni	8f#\	-ni	8a\	-ni
.	.	.	.	8d\	as-	8f#\	as-	8a\	as-
!	!	!	!	!	!	!	!	!LO:LB:g=original	!
=39	=39	=39	=39	=39	=39	=39	=39	=39	=39
4E\	-cen-	4E\	-cen-	4d\	-cen-	4e\	-cen-	4g\	-cen-
4E\	-det	4E\	-det	4cn\	-det	4e\	-det	4g\	-det
4E\	in	4E\	in	4c\	in	4e\	in	4g\	in
!	!	!	!	!	!	!LO:LB:g=original	!	!	!
=40	=40	=40	=40	=40	=40	=40	=40	=40	=40
8F#X\	mon-	(8F#X\L	mon-	2c\	mon-	2d\	mon-	2a\	mon-
(8E\	.	8E\	.	.	.	.	.	.	.
8D\	.	8D\	.	.	.	.	.	.	.
8E\	.	8E\)	.	.	.	.	.	.	.
8F#\)	.	(8F#X\	-tem	4d\	-tem	4d\	-tem	4a\	-tem
8D\	-tem	8D\J)	.	.	.	.	.	.	.
=41	=41	=41	=41	=41	=41	=41	=41	=41	=41
4G\	D(o-	4G\	do-	4B\	do-	4d\	do-	4g\	do-
8G\	-mi)-	8G\	-mi-	8B\	-mi-	8d\	-mi-	8g\	-mi-
8G,<\	-ni	8G\	-ni	8B\	-ni	8d\	-ni	8g\	-ni
!	!	!	!	!LO:LB:g=original	!	!	!	!	!
8G\	aut	8G\	aut	8B\	aut	8e\	aut	8g\	aut
8G\	q(ui)s	8G\	quis	8B\	quis	8e\	quis	8g\	quis
=42	=42	=42	=42	=42	=42	=42	=42	=42	=42
4F#X\	sta-	4F#X\	Sta-	4A/	sta-	4e\	sta-	4a\	Sta-
4F#,<\	bit	4F#\	-bit	4F/	-bit	4d\	-bit	4a\	-bit
*	*	*	*	*	*ij	*	*	*	*
4F#\	q(ui)s	4F#\	quis	4A/	quis	4d\	quis	4a\	quis
!LO:LB:g=original	!	!LO:LB:g=original	!	!	!	!	!	!	!
=43	=43	=43	=43	=43	=43	=43	=43	=43	=43
4E\	sta-	4E\	Sta-	4G/	sta-	4d\	sta-	4g\	Sta-
4E,<\	-bit	4E\	-bit	4E/	-bit	4c#X\	-bit	4g\	-bit
*	*	*	*	*	*Xij	*	*	*	*
4E\	in	4E\	in	4G/	in	4c#\	in	4g\	in
=44	=44	=44	=44	=44	=44	=44	=44	=44	=44
4.D\	lo-	4.D\	lo-	4.F/	lo-	4.f\	lo-	4.a\	lo-
8E\	-co	8E\	-co	8G/	-co	8e\	-co	8g\	-co
4F#X\	Sanc-	4F#X\	Sanc-	4A/	Sanc-	4d\	sanc-	4f#X\	Sanc-
!	!	!	!	!	!	!	!	!LO:LB:g=original	!
=45	=45	=45	=45	=45	=45	=45	=45	=45	=45
*	*	*	*	*	*^	*	*^	*	*^
4G\	-to	4G\	-to	4d\	-to	.	4e\	-to	.	4b\	-to	.
2A\	e-	2A\	e-	(4d\	[[Su-]]	e-	2e\	[[Su-]]	e	2a\	[[Su-]]	e-
.	.	.	.	4c#X\)	.	.	.	.	.	.	.	.
*	*	*	*	*	*	*	*	*v	*v	*	*	*
!	!	!	!	!	!	!	!LO:LB:g=original	!	!	!	!
=46	=46	=46	=46	=46	=46	=46	=46	=46	=46	=46	=46
4D,</	-jus	4D\	-jus	4d\	[[-o]]	-jus	4f\	[[-o]]-jus	4a\	[[-o]]	-jus
4d\	aut	4d\	aut	4f#X\	aut	.	4d\	aut	4a\	aut	.
4d\	q(ui)s	4d\	q(ui)s	4f#\	quis	.	4d\	quis	4b\	quis	.
*	*	*	*	*	*v	*v	*	*	*	*	*
*	*	*	*	*	*	*	*	*	*v	*v
=47	=47	=47	=47	=47	=47	=47	=47	=47	=47
4cn\	sta-	4cn\	sta-	4e\	Sta-	4cn\	sta-	4b\	sta-
4c,<\	-bit	4c\	-bit	4e\	-bit	4A\	-bit	4a\	-bit
4c\	in	4c\	in	4e\	in	4A\	in	4a\	[[q]]in
=48	=48	=48	=48	=48	=48	=48	=48	=48	=48
2Bn\	lo-	2B\	lo-	2d\	lo-	2d\	lo-	4a\	lo-
.	.	.	.	.	.	.	.	2g\	-co
4B\	-co	4B\	-co	4d\	-co	4d\	-co	.	.
!	!	!	!	!LO:LB:g=original	!	!	!	!	!
=49	=49	=49	=49	=49	=49	=49	=49	=49	=49
*	*ij	*	*	*	*	*	*ij	*	*
2A\	Sanc-	2A\	Sanc-	2cn\	San-	4d\	lo-	4g\	Sanc-
.	.	.	.	.	.	2d#X\	-co	2f#X\	-to
*	*	*	*	*	*	*	*Xij	*	*
!	!	!LO:TX:b:t=Vertatur	!	!	!	!	!	!	!
!	!	!LO:TX:t=P:problem:skreślony jeden takt	!	!	!	!	!	!	!
4A\	-to	4A\	-to	4c\	-cto	.	.	.	.
*	*Xij	*	*	*	*	*	*	*	*
!	!	!LO:PB:g=original	!	!	!	!	!	!	!
=50	=50	=50	=50	=50	=50	=50	=50	=50	=50
4.G\	S(an)-	4.G\	lo-	4.B\	lo-	4.e\	lo-	4.g\	lo-
!LO:TX:a:t=P:problem:# above	!	!	!	!	!	!LO:TX:a:t=P:problem:# above	!	!	!
8F#X\	-cto	8F#X\	-co	8A\	-co	8f#X\	-co	8a\	-co
4E\	.	4E\	Sanc-	4G\	Sanc-	4g\	Sanc-	4b\	Sanc-
=51	=51	=51	=51	=51	=51	=51	=51	=51	=51
*	*	*	*	*	*	*	*^	*	*^
!	!	!	!	!	!	!LO:TX:a:t=P:problem:# above	!	!	!	!	!
4A\	E-	4A\	-to	4c\	-to	8f#X\L	-to	.	(8a\L	-to	.
.	.	.	.	.	.	8e\J	.	.	8g\J)	.	.
!	!	!	!	!	!	!	!	!	!LO:TX:t=P:problem:poprawka tekstu: było Suo	!	!
!	!	!	!	!	!	!	!	!	!LO:TX:b:t=Verte.	!	!
4B\	.	2B\	e-	2B\	e-	(4e\	[[Su-]]	e-	2f#X\	[[Su-]]	e
4BB/	.	.	.	.	.	4d#X\)	.	.	.	.	.
*	*	*	*	*	*	*	*	*	*	*v	*v
!LO:LB:g=original	!	!	!	!	!	!	!	!LO:PB:g=original	!	!
=52	=52	=52	=52	=52	=52	=52	=52	=52	=52	=52
4E,<\	-jus	4E\	-juz	4B\	-jus	4e\	[[-o]]	-jus	4g\	[[-o]]-jus
8E\	In-	8E\	in-	8B\	in-	8e\	in-	.	8g#X\	in-
8E\	-no-	8E\	-no-	8B\	-no-	8e\	-no-	.	8g#\	-no-
4D/	-cens	4D\	-cens	4B\	-cens	4e\	-cens	.	4g#\	-cens
*	*	*	*	*	*	*	*v	*v	*	*
!	!	!	!	!	!	!LO:LB:g=original	!	!	!
=53	=53	=53	=53	=53	=53	=53	=53	=53	=53
4.C/	ma-	4.C/	ma-	4.c\	ma-	4.e\	ma-	4.a\	ma-
!	!	!	!	!	!	!LO:TX:a:t=P:problem:♮ above	!	!	!
8BB/	-ni-	8BB/	-ni-	8d\	-ni-	8dn\	-ni-	8b\	-ni-
4AA/	-b(us)	4AA/	-bus	4e\	-bus	4cn\	-bus	4cc\	-bus
=54	=54	=54	=54	=54	=54	=54	=54	=54	=54
4D/	et	4D/	et	4d\	et	4A\	et	4f#X\	et
4D/	mun-	4D/	mun-	4A\	mun-	4d\	mun-	4f#\	mun-
4Cn/	-do	4C/	-do	4A\	-do	4d\	-do	4f#\	-do
=55	=55	=55	=55	=55	=55	=55	=55	=55	=55
4.BB/	cor-	(4.BB/	cor-	(4.B\	cor-	(4.d\	cor-	(4.gn\	cor-
8AA/	.	8AA/)	.	8c\)	.	8c\)	.	8a\)	.
4GG/	-de	4GG/	-de	4d\	-de	4B\	-de	4b\	-de
!	!	!	!	!LO:LB:g=original	!	!	!	!	!
=56	=56	=56	=56	=56	=56	=56	=56	=56	=56
4C/	et	4C/	et	4c\	et	4e\	et	4g\	et
4BB/	mun-	4BB/	mun-	4d\	mun-	4d\	mun-	4g\	mun-
4AA/	-do	4AA/	-do	4A\	-do	4c\	-do	4f#X\	-do
!	!	!	!	!	!	!	!	!LO:LB:g=original	!
=57	=57	=57	=57	=57	=57	=57	=57	=57	=57
8GG/	cor-	8GG/L	cor-	4B\	cor-	8B\L	cor-	(2g\	cor-
(8AA/	.	8AA/	.	.	.	(8c\	.	.	.
8BB/	.	8BB/	.	2A\	.	8d\	.	.	.
8C/)	.	8C/J	.	.	.	8e\J)	.	.	.
4D/	.	4D/	.	.	.	4d\	.	4f#X\)	.
!	!	!LO:LB:g=original	!	!	!	!	!	!	!
=58	=58	=58	=58	=58	=58	=58	=58	=58	=58
!LO:N:vis=0.	!	!	!	!	!	!	!	!	!
2.GG;/	-de.	2.GG/	-de	2.B\	-de	2.d\	-de.	2.g\	-de.
==	==	==	==	==	==	==	==	==	==
*-	*-	*-	*-	*-	*-	*-	*-	*-	*-
!!!system-decoration: [(s1,s2,s3,s4)]s5
!!!RDF**kern: < = below
!!!ENC: Marta Lawrence
!!!END: 2021-03-04
!!!ENC: Mateusz Solarz
!!!END: 2021-02-16
